X: 134
P: Vall\aatspolska (Orsa polska)
R: Orsa-polska
S: Kalle Alml\"of & Malungs spelmanslag
M: 3/4
L: 1/16
K: Dm
d2 \
| d3^c A3c d3e | f3a agg>a fgfe | ^c4 d3e f3e | g2f2 d3^c A4- |
| A3^c d2e2 f3a | a2g2 g2a2 fgfe | ^c4 d3e f3e | gf3 d6 :|
K: Gdor
|: A2- \
| A4 BABc d4 | d3^F G3A B3c | d3=e dc3 B3A | c2B2 G3^F D4- |
| D4 BABc d3c | B3A G^FGA B3c | d3e d3c B3A | cB3 G6 :|
%%newpage
